packages/web/components/common/Icon/icons/password.svg

<svg width="16" height="18" viewBox="0 0 16 18" fill="none" xmlns="http://www.w3.org/2000/svg">
<path d="M4.57143 5.625C4.57143 3.76087 6.10629 2.25 8 2.25C9.89371 2.25 11.4286 3.76087 11.4286 5.625C11.4286 6.02212 11.3463 6.39675 11.2183 6.75H13.7143V5.625C13.7143 2.51888 11.1554 0 8 0C4.84343 0 2.28571 2.51775 2.28571 5.625V6.75C2.28571 6.75 3.32457 6.75 4.78171 6.75C4.65371 6.39562 4.57143 6.021 4.57143 5.625ZM13.7143 6.75H2.28571C1.02286 6.75 0 7.758 0 9V15.75C0 16.9931 1.02286 18 2.28571 18H13.7143C14.9771 18 16 16.992 16 15.75V9C16 7.758 14.9771 6.75 13.7143 6.75ZM9.14286 13.1873V14.625C9.14286 15.246 8.63086 15.75 8 15.75C7.36914 15.75 6.85714 15.246 6.85714 14.625V13.1884C6.17714 12.798 5.71429 12.0802 5.71429 11.25C5.71429 10.0069 6.73714 9 8 9C9.26286 9 10.2857 10.0069 10.2857 11.25C10.2857 12.0802 9.82286 12.798 9.14286 13.1873Z" fill="#8A95A7"/>
</svg>

<svg width="16" height="18" xmlns="http://www.w3.org/2000/svg"><path d="M4.571 5.625C4.571 3.761 6.106 2.25 8 2.25s3.429 1.51 3.429 3.375c0 .397-.083.772-.21 1.125h2.495V5.625C13.714 2.519 11.155 0 8 0 4.843 0 2.286 2.518 2.286 5.625V6.75h2.496a3.296 3.296 0 01-.21-1.125zm9.143 1.125H2.286C1.023 6.75 0 7.758 0 9v6.75C0 16.993 1.023 18 2.286 18h11.428C14.977 18 16 16.992 16 15.75V9c0-1.242-1.023-2.25-2.286-2.25zm-4.571 6.437v1.438c0 .621-.512 1.125-1.143 1.125-.63 0-1.143-.504-1.143-1.125v-1.437a2.237 2.237 0 01-1.143-1.938C5.714 10.007 6.737 9 8 9c1.263 0 2.286 1.007 2.286 2.25 0 .83-.463 1.548-1.143 1.937z" /></svg>
